X: 16
T: Amaryllis
P: Longways for as many as will
%R: reel
B: "The Dancing-Master: Containing Directions and Tunes for Dancing" printed by W. Pearson for John Walsh, London ca. 1709
S: 7: DMDfD http://digital.nls.uk/special-collections-of-printed-music/pageturner.cfm?id=89751228 p.75 "H 2"
Z: 2013 John Chambers <jc:trillian.mit.edu>
M: C|
L: 1/8
K: G
% - - - - - - - - - - - - - - - - - - - - - - - - -
[|\
d3 c B2 AG | A2 D2 G4 | de dc BA BG | A2 D2 G2 ][ \
A3 B c2 B2 | c2 d2 e3 f | g2 f2 ga f2 | e4 d4 |\
g3 f e2 d2 | ed c2 B3 c | d2 ed c2 B2 | A4 G4 |]
% - - - - - - - - - - Dance description: - - - - - - - - - -
%%begintext align
%% Lead up, and back, that again :| Then set to your own wo. fall back and turn her about :|
%%endtext
%%sep 1 1 300
%%begintext align
%% Cross over with your own wo. into the 2. place, the 2. cu. leading up between, the 2 doing as much :|
%% The 1. man cross over with the 2. wo. the 1. wo. cross over with the 2. man, then take all hands
%% and go quite round .| Do this to the last .|
%%endtext
%%sep 1 1 300
%%begintext align
%% The 2. cu. lead up and slide out from your own, fall back and slide in :| The 1. man takes his wo. by
%% the right-hand and leads her into the 2. place, then cast off into their own places and meet, then cast
%% off into the 2. place. Do this to the last .|
%% [DMDfD]
%%endtext
%%sep 1 8 500

%%sep 1 1 500
%%sep 1 1 500
